16x16/actions/labplot-editgrid.svg

<svg viewBox="0 0 16 16" xmlns="http://www.w3.org/2000/svg"><path d="m2 2v12h12v-12zm1 1h4v4h-4zm5 0h5v4h-5zm-2.96 1a1 1 0 0 0 -.73.275 1 1 0 0 0 -.185 1.21 1 1 0 0 0 1.125.484 1 1 0 0 0 .75-.969h-1l.53-.848a1 1 0 0 0 -.49-.152zm-2.04 4h4v5h-4zm5 0h5v5h-5zm3 1v3h1v-3zm-2 2v1h1v-1z" fill="#8b9cbe"/></svg>

<svg xmlns="http://www.w3.org/2000/svg" viewBox="0 0 16 16"><path style="fill:currentColor;fill-opacity:1;stroke:none;color:#8b9cbe" d="M2 2v12h12V2H2zm1 1h4v4H3V3zm5 0h5v4H8V3zM5.04 4a1 1 0 0 0-.73.275 1 1 0 0 0-.185 1.21 1 1 0 0 0 1.125.484A1 1 0 0 0 6 5H5l.53-.848A1 1 0 0 0 5.04 4zM3 8h4v5H3V8zm5 0h5v5H8V8zm3 1v3h1V9h-1zm-2 2v1h1v-1H9z"/></svg>
